X: 41003
T: Trip To Ferns, The
R: jig
M: 6/8
K: Dmajor
|:c|dAd BAF|DFA BAF|1 BAF DFA|BAD FEE|
dAd BAF|DFA BAF|BAF dAF|EFE D2:|2 BAF D2 F|A2 D FEE|
dAd BAF|DFA BAF|BAF dAF|EDC D2|
|:A|B^AB edB|A^GA fdA|GFG BAG|FDF EFE|
DEF EFG|FGA GAB|A^GA fdB|ecA d2:|

